X:1
T:Chester (Oratory), CMD
T:Chester (Oratory), CMD
T:Oratory Hymns, 1868
T:Public Domain Courtesy of the Cyber Hymnal™
C:Oratory Hymns, 1868
Z:Public Domain
Z:Courtesy of the Cyber Hymnal™
%%score ( 1 2 ) ( 3 4 )
L:1/8
Q:1/4=135
M:3/4
K:F
V:1 treble 
V:2 treble 
V:3 bass 
V:4 bass 
V:1
 [FA]2 | (A2 ^G2) [FA]2 | [FB]4 [FA]2 | [FA]4 [EG]2 | [EG]4 [EA]2 | [DF]4 [DF]2 | [DG]4 [DG]2 | %7
 [^CA]6- | [CA]4 [=CA]2 | (A2 B2) [FA]2 | [FB]4 [FA]2 | [Fd]4 [FG]2 | [FG]4 [FG]2 | %13
 ([EG]2 [FA]2) [GB]2 | [FA]4 [EG]2 | F6- | F4 [FA]2 | [EG]4 [GB]2 | [FA]4 [Fc]2 | (=B2 A2) [FB]2 | %20
 [Ec]4 [Ec]2 | ([Ee]2 [Gc]2) [EG]2 | [FA]4 [F=B]2 | [Ec]6- | [Ec]4 [EB]2 | (A2 ^G2) [FA]2 | %26
 [FB]4 [FA]2 | [Fd]4 [FG]2 | !fermata![FG]4 [FG]2 | ([EG]2 [FA]2) [GB]2 | [FA]4 [EG]2 | F6- | F4 |] %33
V:2
 x2 | F4 x2 | x6 | x6 | x6 | x6 | x6 | x6 | x6 | F4 x2 | x6 | x6 | x6 | x6 | x6 | F6- | F4 x2 | %17
 x6 | x6 | F4 x2 | x6 | x6 | x6 | x6 | x6 | F4 x2 | x6 | x6 | x6 | x6 | x6 | F6- | F4 |] %33
V:3
 [F,C]2 | (C2 =B,2) [F,C]2 | [F,D]4 [F,C]2 | [C,C]4 [C,B,]2 | [C,B,]4 [C,C]2 | [D,A,]4 [D,A,]2 | %6
 [B,,B,]4 [B,,D,]2 | [A,,E,]6- | [A,,E,]4 F,2 | (C2 D2) [F,C]2 | [F,D]4 [F,C]2 | [B,,B,]4 [B,D]2 | %12
 [=B,D]4 [B,D]2 | C4 [C,C]2 | [C,C]4 [C,B,]2 | [F,A,]6- | [F,A,]4 [F,C]2 | C4 [E,C]2 | C4 [A,C]2 | %19
 [G,D]4 G,2 | [C,G,]4 [C,G,]2 | ([C,G,]2 [E,C]2) [C,C]2 | [F,C]2 [D,D]2 [G,D]2 | [C,C]6- | %24
 [C,C]4 [C,C]2 | (C2 =B,2) [F,D]2 | [F,D]4 [F,C]2 | [B,,B,]4 [B,D]2 | !fermata![=B,D]4 [B,D]2 | %29
 C4 [C,C]2 | [C,C]4 [C,B,]2 | [F,A,]6- | [F,A,]4 |] %33
V:4
 x2 | F,4 x2 | x6 | x6 | x6 | x6 | x6 | x6 | x4 F,2 | F,4 x2 | x6 | x6 | x6 | C4 x2 | x6 | x6 | %16
 x6 | (C,2 D,2) x2 | (F,2 G,2) x2 | x4 G,2 | x6 | x6 | x6 | x6 | x6 | F,4 x2 | x6 | x6 | x6 | %29
 C4 x2 | x6 | x6 | x4 |] %33

